src/assets/images/icons/github-icon-mono.svg

<svg width="21" height="20" viewBox="0 0 21 20" fill="none" xmlns="http://www.w3.org/2000/svg">
<path fill-rule="evenodd" clip-rule="evenodd" d="M10.2495 0C4.6123 0 0 4.6123 0 10.2495C0 14.7764 2.90404 18.62 7.00386 19.9866C7.51634 20.072 7.68716 19.7304 7.68716 19.4741C7.68716 19.2179 7.68716 18.62 7.68716 17.7659C4.86854 18.3638 4.27065 16.3993 4.27065 16.3993C3.84358 15.2035 3.16028 14.8618 3.16028 14.8618C2.13532 14.264 3.16028 14.264 3.16028 14.264C4.18523 14.3494 4.69771 15.2889 4.69771 15.2889C5.63725 16.8263 7.08927 16.3993 7.68716 16.143C7.77257 15.4597 8.02881 15.0327 8.37047 14.7764C6.06432 14.5202 3.67276 13.6661 3.67276 9.73707C3.67276 8.6267 4.09982 7.68716 4.69771 7.00386C4.69771 6.66221 4.27065 5.63725 4.86854 4.27065C4.86854 4.27065 5.72267 4.01441 7.68716 5.2956C8.54129 5.03936 9.39542 4.95395 10.2495 4.95395C11.1037 4.95395 11.9578 5.03936 12.8119 5.2956C14.7764 3.92899 15.6306 4.27065 15.6306 4.27065C16.2285 5.72267 15.8014 6.74762 15.716 7.00386C16.3993 7.68716 16.7409 8.6267 16.7409 9.73707C16.7409 13.6661 14.3494 14.5202 12.0432 14.7764C12.3849 15.1181 12.7265 15.716 12.7265 16.6555C12.7265 18.0221 12.7265 19.1325 12.7265 19.4741C12.7265 19.7304 12.8973 20.072 13.4098 19.9866C17.5096 18.62 20.4137 14.7764 20.4137 10.2495C20.4991 4.6123 15.8868 0 10.2495 0Z" fill="white"/>
</svg>

<svg width="21" height="20" fill="none" xmlns="http://www.w3.org/2000/svg"><path fill-rule="evenodd" clip-rule="evenodd" d="M10.25 0C4.611 0 0 4.612 0 10.25c0 4.526 2.904 8.37 7.004 9.737.512.085.683-.257.683-.513v-1.708c-2.818.598-3.416-1.367-3.416-1.367-.427-1.196-1.11-1.537-1.11-1.537-1.026-.598 0-.598 0-.598 1.024.085 1.537 1.025 1.537 1.025.94 1.537 2.391 1.11 2.99.854.085-.683.34-1.11.682-1.367-2.306-.256-4.697-1.11-4.697-5.039 0-1.11.427-2.05 1.025-2.733 0-.342-.427-1.367.17-2.733 0 0 .855-.257 2.82 1.025.853-.257 1.707-.342 2.561-.342.855 0 1.709.085 2.563.342C14.776 3.929 15.63 4.27 15.63 4.27c.598 1.452.17 2.477.085 2.733.683.683 1.025 1.623 1.025 2.733 0 3.93-2.392 4.783-4.698 5.04.342.341.684.939.684 1.879v2.818c0 .256.17.598.683.513a10.238 10.238 0 0 0 7.004-9.737C20.499 4.611 15.887 0 10.249 0Z" fill="#fff"/></svg>
